X: 2
T: The Scartaglen
R: reel
M: 4/4
L: 1/8
K: Dmaj
DFEF D2Ad | cAGF EFGD | F3E DFAd | cAGF EFGE |DFEF D2Ad | cAGF EFGD | Addc d2ed ||1 cAGF EFGE :|2 cAGE EDD2 :||:f3e fage | f2df afde | f3e fage | fdec Add2 | f3e fage | f2df afde | fage d2ed | cAGF EFGE :|


Tune 900	Setting 24984

